X:1
T:Can-Can (theme)
C:Jacques Offenbach
M:2/4
L:1/8
Q:1/8=200
K:D
A4 | Fd (d2) | Fd (d2) | FA (A2) | GA (B2) | cd (d2) | cd (d2) | ed (d2) | B4 | A4 | B4 | A4 |]
